Sources/FrostedUI/Resources/Icons.xcassets/downloadDocument12.imageset/download-document-12.svg

<svg width="12" height="12" viewBox="0 0 12 12" fill="none" xmlns="http://www.w3.org/2000/svg" data-fui-icon="true">
  <path
    d="M5.95898 0C6.45585 0 6.917 0.217196 7.24512 0.577148L10.001 3.60156C10.327 3.95926 10.5 4.4306 10.5 4.90918V10.1152C10.4998 11.0891 9.7651 11.9998 8.71582 12H3.28418C2.23492 11.9998 1.50019 11.0891 1.5 10.1152V1.88477C1.50019 0.910923 2.23491 0.000175319 3.28418 0H5.95898ZM3.28418 1.5C3.19101 1.50023 3.00017 1.60558 3 1.88477V10.1152C3.00017 10.3944 3.19101 10.4998 3.28418 10.5H8.71582C8.809 10.4998 8.99983 10.3944 9 10.1152V5.18945H7.42285C6.37327 5.18945 5.6377 4.27778 5.6377 3.30371V1.5H3.28418ZM6.12109 5.5C6.39724 5.5 6.62109 5.72386 6.62109 6V7.83008L7.42773 7.02441C7.62291 6.82924 7.93948 6.82941 8.13477 7.02441C8.32994 7.21968 8.33 7.53621 8.13477 7.73145L6.54785 9.31836C6.27936 9.58671 5.84364 9.5868 5.5752 9.31836L4.11133 7.85352C3.91607 7.65825 3.91607 7.34175 4.11133 7.14648C4.3066 6.95134 4.62314 6.95126 4.81836 7.14648L5.62109 7.94922V6C5.62109 5.7239 5.84501 5.50007 6.12109 5.5ZM7.1377 3.30371C7.1377 3.58348 7.32974 3.68945 7.42285 3.68945H8.05176L7.1377 2.68555V3.30371Z"
    fill="currentColor"
  />
</svg>

<svg xmlns="http://www.w3.org/2000/svg" width="12" height="12" fill="none" data-fui-icon="true" viewBox="0 0 12 12"><path fill="currentColor" d="M5.959 0c.497 0 .958.217 1.286.577l2.756 3.025c.326.357.499.829.499 1.307v5.206C10.5 11.09 9.765 12 8.716 12H3.284c-1.05 0-1.784-.91-1.784-1.885v-8.23C1.5.91 2.235 0 3.284 0zM3.284 1.5c-.093 0-.284.106-.284.385v8.23c0 .28.191.385.284.385h5.432c.093 0 .284-.106.284-.385V5.19H7.423c-1.05 0-1.785-.911-1.785-1.885V1.5zm2.837 4a.5.5 0 0 1 .5.5v1.83l.807-.806a.5.5 0 0 1 .707.707L6.548 9.318a.69.69 0 0 1-.973 0L4.111 7.854a.5.5 0 1 1 .707-.708l.803.803V6a.5.5 0 0 1 .5-.5m1.017-2.196c0 .28.192.385.285.385h.629l-.914-1.003z"/></svg>
